X: 1
T: John O'Shea's March
Z: ceolachan
S: https://thesession.org/tunes/4770#setting4770
R: barndance
M: 4/4
L: 1/8
K: Gmaj
|: BA |G2 B,C D2 E/F/G | A3 B d2 BA | G>E DE G2 G2 | G6 AB |
c3 d e2 dc | B2 G2 A2 Bc | dc BG FD E^C | D6 A>B |
c2 cd e2 dc | B3 G A2 Bc | d>c BG F>D E^C | D6 BA |
G2 B,C D2 EG | A3 B d2 BA | GE DE G2 G2 | G6 :|
